assets/src/images/icons/ic_ii.svg

<svg width="102" height="102" viewBox="0 0 102 102" fill="none" xmlns="http://www.w3.org/2000/svg">
<g filter="url(#filter0_d)">
<path fill-rule="evenodd" clip-rule="evenodd" d="M71.3848 50.3848H61.4788V48.985H64.1515C64.4913 48.985 64.7667 48.7095 64.7667 48.3697C64.7667 48.03 64.4913 47.7545 64.1515 47.7545H61.4788V46.3547H63.3344C64.0257 46.3547 64.6756 46.0855 65.1643 45.5967L69.2106 41.5504C69.4743 41.6817 69.7665 41.7516 70.0697 41.7516C70.5854 41.7516 71.0701 41.5508 71.4347 41.1863C71.7994 40.8216 72.0002 40.3369 72.0002 39.8213C72.0002 39.3056 71.7994 38.8209 71.4347 38.4563C71.0702 38.0916 70.5854 37.8908 70.0697 37.8908C69.5541 37.8908 69.0694 38.0916 68.7047 38.4562C68.3401 38.8208 68.1393 39.3055 68.1393 39.8212C68.1393 40.1244 68.2092 40.4167 68.3405 40.6803L64.2942 44.7266C64.0379 44.9829 63.697 45.1242 63.3343 45.1242H61.4788V43.7667C61.4788 41.9771 60.0228 40.5212 58.2333 40.5212H56.8758V35.0748C57.6394 34.8173 58.1909 34.0948 58.1909 33.2455C58.1909 32.181 57.3249 31.3151 56.2606 31.3151C55.1962 31.3151 54.3302 32.1811 54.3302 33.2455C54.3302 34.0948 54.8818 34.8172 55.6454 35.0748V40.5212H54.2456V37.8485C54.2456 37.5087 53.9701 37.2333 53.6303 37.2333C53.2906 37.2333 53.0151 37.5087 53.0151 37.8485V40.5212H51.6152V30.6152C51.6152 30.2755 51.3398 30 51 30C50.6602 30 50.3848 30.2755 50.3848 30.6152V40.5212H48.985V37.8485C48.985 37.5087 48.7095 37.2333 48.3698 37.2333C48.03 37.2333 47.7545 37.5087 47.7545 37.8485V40.5212H46.3547V38.6657C46.3547 37.9744 46.0855 37.3245 45.5967 36.8357L41.549 32.7881C41.9066 32.0661 41.7867 31.1659 41.1864 30.5654C40.4336 29.8128 39.209 29.8129 38.4564 30.5654C37.7037 31.3181 37.7037 32.5427 38.4564 33.2954C38.8327 33.6717 39.327 33.8599 39.8214 33.8599C40.1157 33.8599 40.4095 33.7916 40.679 33.6581L44.7267 37.7059C44.9831 37.9622 45.1243 38.3031 45.1243 38.6657V40.5212H43.7668C43.4924 40.5212 43.2195 40.5556 42.9557 40.6235C42.6267 40.7081 42.4286 41.0435 42.5132 41.3726C42.5979 41.7018 42.9334 41.8999 43.2624 41.8151C43.4261 41.773 43.5957 41.7516 43.7667 41.7516H58.2333C59.3444 41.7516 60.2483 42.6556 60.2483 43.7666V58.2333C60.2483 58.4041 60.227 58.5737 60.185 58.7372C60.1004 59.0663 60.2986 59.4016 60.6276 59.4862C60.679 59.4994 60.7305 59.5057 60.7812 59.5057C61.0553 59.5057 61.3053 59.3212 61.3766 59.0435C61.4444 58.78 61.4788 58.5073 61.4788 58.2332V56.8757H66.9251C67.1826 57.6393 67.9051 58.1909 68.7544 58.1909C69.8189 58.1909 70.6848 57.3249 70.6848 56.2605C70.6848 55.1961 69.8188 54.3301 68.7544 54.3301C67.9051 54.3301 67.1827 54.8817 66.9251 55.6453H61.4788V54.2454H64.1514C64.4912 54.2454 64.7667 53.9699 64.7667 53.6302C64.7667 53.2904 64.4912 53.0149 64.1514 53.0149H61.4788V51.6152H71.3848C71.7245 51.6152 72 51.3398 72 51C72 50.6602 71.7245 50.3848 71.3848 50.3848ZM69.5748 39.3264C69.707 39.1941 69.8827 39.1214 70.0696 39.1214C70.2566 39.1214 70.4323 39.1941 70.5645 39.3264C70.6968 39.4586 70.7695 39.6343 70.7695 39.8213C70.7695 40.0082 70.6968 40.1839 70.5645 40.3162C70.4323 40.4484 70.2566 40.5212 70.0696 40.5212C69.8827 40.5212 69.707 40.4484 69.5748 40.3162C69.4425 40.1839 69.3698 40.0082 69.3698 39.8213C69.3698 39.6343 69.4425 39.4585 69.5748 39.3264ZM40.3162 32.4254C40.0433 32.6982 39.5993 32.6983 39.3263 32.4253C39.0534 32.1524 39.0534 31.7084 39.3263 31.4355C39.4628 31.299 39.642 31.2309 39.8213 31.2309C40.0005 31.2309 40.1798 31.2991 40.3162 31.4355C40.5891 31.7085 40.5891 32.1525 40.3162 32.4254ZM56.2606 33.9454C55.8747 33.9454 55.5607 33.6314 55.5607 33.2455C55.5607 32.8596 55.8746 32.5456 56.2606 32.5456C56.6465 32.5456 56.9605 32.8596 56.9605 33.2455C56.9605 33.6314 56.6465 33.9454 56.2606 33.9454ZM68.7545 55.5607C69.1405 55.5607 69.4544 55.8747 69.4544 56.2606C69.4544 56.6465 69.1404 56.9605 68.7545 56.9605C68.3686 56.9605 68.0546 56.6465 68.0546 56.2606C68.0545 55.8746 68.3686 55.5607 68.7545 55.5607ZM63.5437 68.7046C62.9433 68.1042 62.043 67.9843 61.3211 68.3419L57.2734 64.2942C57.017 64.0378 56.8758 63.6969 56.8758 63.3343V61.4788H58.2333C58.5077 61.4788 58.7805 61.4444 59.0442 61.3765C59.3733 61.2919 59.5714 60.9565 59.4867 60.6274C59.4021 60.2983 59.0668 60.1002 58.7375 60.1849C58.5739 60.227 58.4043 60.2483 58.2333 60.2483H43.7667C42.6556 60.2483 41.7517 59.3443 41.7517 58.2333V43.7667C41.7517 43.5957 41.773 43.4261 41.8151 43.2626C41.8999 42.9335 41.7018 42.5981 41.3727 42.5134C41.0436 42.4286 40.7082 42.6267 40.6235 42.9558C40.5556 43.2194 40.5212 43.4923 40.5212 43.7667V45.1242H35.0748C34.8173 44.3606 34.0948 43.8091 33.2455 43.8091C32.181 43.8091 31.3151 44.675 31.3151 45.7394C31.3151 46.8039 32.1811 47.6698 33.2455 47.6698C34.0948 47.6698 34.8172 47.1182 35.0748 46.3547H40.5212V47.7545H37.8485C37.5087 47.7545 37.2333 48.03 37.2333 48.3698C37.2333 48.7095 37.5087 48.985 37.8485 48.985H40.5212V50.3848H30.6152C30.2755 50.3848 30 50.6602 30 51C30 51.3398 30.2755 51.6152 30.6152 51.6152H40.5212V53.015H37.8485C37.5087 53.015 37.2333 53.2905 37.2333 53.6303C37.2333 53.97 37.5087 54.2455 37.8485 54.2455H40.5212V55.6454H38.6656C37.9743 55.6454 37.3244 55.9145 36.8357 56.4033L32.7894 60.4496C32.5257 60.3183 32.2335 60.2484 31.9303 60.2484C31.4146 60.2484 30.9299 60.4492 30.5653 60.8137C30.2008 61.1784 30 61.6632 30 62.1787C30 62.6943 30.2008 63.1791 30.5654 63.5437C30.93 63.9084 31.4148 64.1091 31.9304 64.1091C32.4461 64.1091 32.9308 63.9083 33.2954 63.5437C33.6601 63.1791 33.8609 62.6944 33.8609 62.1787C33.8609 61.8755 33.791 61.5833 33.6597 61.3196L37.7059 57.2733C37.9623 57.017 38.3032 56.8757 38.6659 56.8757H40.5214V58.2332C40.5214 60.0228 41.9774 61.4787 43.7669 61.4787H45.1243V66.9251C44.3608 67.1826 43.8092 67.905 43.8092 68.7544C43.8092 69.8188 44.6752 70.6847 45.7396 70.6847C46.8039 70.6847 47.6699 69.8187 47.6699 68.7544C47.6699 67.905 47.1184 67.1826 46.3548 66.9251V61.4787H47.7546V64.1513C47.7546 64.4911 48.0301 64.7666 48.3698 64.7666C48.7096 64.7666 48.9851 64.4911 48.9851 64.1513V61.4787H50.3848V71.3848C50.3848 71.7245 50.6602 72 51 72C51.3398 72 51.6152 71.7245 51.6152 71.3848V61.4788H53.015V64.1515C53.015 64.4913 53.2905 64.7667 53.6302 64.7667C53.97 64.7667 54.2455 64.4913 54.2455 64.1515V61.4788H55.6453V63.3343C55.6453 64.0256 55.9145 64.6755 56.4033 65.1643L60.451 69.2119C60.0934 69.9339 60.2133 70.8341 60.8137 71.4346C61.19 71.8109 61.6844 71.999 62.1787 71.999C62.673 71.999 63.1674 71.8109 63.5437 71.4346C64.2964 70.6819 64.2964 69.4573 63.5437 68.7046ZM33.2455 46.4393C32.8595 46.4393 32.5456 46.1253 32.5456 45.7394C32.5456 45.3535 32.8596 45.0395 33.2455 45.0395C33.6314 45.0395 33.9454 45.3535 33.9454 45.7394C33.9455 46.1254 33.6314 46.4393 33.2455 46.4393ZM32.4253 62.6736C32.293 62.8059 32.1173 62.8786 31.9304 62.8786C31.7434 62.8786 31.5677 62.8059 31.4355 62.6736C31.3032 62.5414 31.2305 62.3657 31.2305 62.1787C31.2305 61.9918 31.3032 61.8161 31.4355 61.6838C31.5677 61.5516 31.7434 61.4788 31.9304 61.4788C32.1173 61.4788 32.293 61.5516 32.4253 61.6838C32.5575 61.8161 32.6302 61.9918 32.6302 62.1787C32.6302 62.3657 32.5575 62.5415 32.4253 62.6736ZM46.4393 68.7545C46.4393 69.1404 46.1254 69.4544 45.7394 69.4544C45.3535 69.4544 45.0395 69.1404 45.0395 68.7545C45.0395 68.3686 45.3535 68.0546 45.7394 68.0546C46.1253 68.0546 46.4393 68.3686 46.4393 68.7545ZM62.6737 70.5645C62.4008 70.8375 61.9567 70.8374 61.6838 70.5645C61.4109 70.2916 61.4109 69.8476 61.6838 69.5747C61.8203 69.4383 61.9996 69.3701 62.1788 69.3701C62.358 69.3701 62.5373 69.4383 62.6737 69.5747C62.9465 69.8476 62.9465 70.2916 62.6737 70.5645ZM55.2535 46.5637C56.571 46.9258 57.5334 48.0404 57.5334 49.3562C57.5334 50.0936 57.2189 50.7971 56.6778 51.3289C57.2189 51.8606 57.5334 52.5641 57.5334 53.3016C57.5334 54.3041 56.9615 55.2326 56.048 55.7627C55.9572 57.1156 54.7236 58.191 53.2193 58.191C52.3211 58.191 51.5197 57.8072 51.0001 57.2102C50.4804 57.8072 49.679 58.191 48.7808 58.191C47.2178 58.191 45.9462 57.03 45.9462 55.603V55.6015C45.0256 54.9957 44.4666 54.0189 44.4668 52.9729C44.4668 52.2851 44.7037 51.6391 45.1147 51.107C44.6943 50.6059 44.4668 49.9992 44.4668 49.3562C44.4668 48.0403 45.4292 46.9258 46.7467 46.5637C46.7077 46.4028 46.6861 46.2373 46.6861 46.0683C46.6861 44.8226 47.7917 43.8091 49.1507 43.8091C49.8867 43.8091 50.5481 44.1067 51.0001 44.5773C51.4521 44.1067 52.1133 43.8091 52.8495 43.8091C54.2084 43.8091 55.3141 44.8226 55.3141 46.0683C55.3141 46.2373 55.2924 46.4028 55.2535 46.5637ZM56.3027 53.3016C56.3027 52.7199 55.9488 52.1858 55.3559 51.8729C55.1541 51.7664 55.0278 51.557 55.0278 51.3288C55.0278 51.1006 55.1541 50.8911 55.3559 50.7847C55.9488 50.4717 56.3027 49.9377 56.3027 49.356C56.3027 48.4306 55.4254 47.6772 54.344 47.6701C54.3416 47.6702 54.3392 47.6704 54.3368 47.6705C54.3337 47.6708 54.3307 47.671 54.3276 47.671C54.3242 47.671 54.3207 47.6708 54.3173 47.6706C54.3149 47.6705 54.3124 47.6703 54.31 47.6703C54.0115 47.6726 53.7254 47.7302 53.4595 47.8424C53.1463 47.9744 52.7855 47.8275 52.6535 47.5145C52.5215 47.2014 52.6683 46.8405 52.9814 46.7085C53.3027 46.573 53.6412 46.4884 53.9911 46.4554C54.0437 46.3491 54.0834 46.2198 54.0834 46.0682C54.0834 45.501 53.5297 45.0394 52.8492 45.0394C52.1688 45.0394 51.6151 45.501 51.6151 46.0682C51.6151 46.408 51.3396 46.6834 50.9998 46.6834C50.6601 46.6834 50.3846 46.408 50.3846 46.0682C50.3846 45.501 49.8309 45.0394 49.1504 45.0394C48.47 45.0394 47.9163 45.501 47.9163 46.0682C47.9163 46.3361 48.0387 46.5369 48.1414 46.6582L48.1423 46.6594C48.1529 46.672 48.1626 46.6852 48.1721 46.6985C48.1733 46.7002 48.1747 46.7019 48.176 46.7036C48.1775 46.7055 48.179 46.7075 48.1803 46.7094C48.1853 46.7167 48.1895 46.7244 48.1942 46.732C48.3525 46.9869 48.3052 47.3257 48.0693 47.5253C47.9538 47.6232 47.8126 47.671 47.6722 47.671C47.6691 47.671 47.6661 47.6708 47.663 47.6705C47.6606 47.6704 47.6582 47.6702 47.6557 47.6701C46.5743 47.6772 45.6971 48.4306 45.6968 49.356C45.6968 49.6906 45.8144 50.0117 46.0327 50.2858C46.3693 50.0785 46.749 49.9206 47.1613 49.826C47.4924 49.7501 47.8226 49.9569 47.8986 50.2881C47.9745 50.6193 47.7676 50.9494 47.4365 51.0253C46.4122 51.2604 45.6968 52.0612 45.6968 52.9727C45.6968 53.4781 45.9236 53.9616 46.3121 54.3291C46.4176 54.1589 46.5445 53.9987 46.6919 53.8521C46.9329 53.6126 47.3224 53.6138 47.5619 53.8548C47.8014 54.0958 47.8003 54.4853 47.5593 54.7249C47.3124 54.9703 47.1764 55.2822 47.1764 55.603C47.1764 56.3516 47.8959 56.9606 48.7805 56.9606C49.6649 56.9606 50.3845 56.3516 50.3845 55.603V54.2879C50.3845 53.7234 49.9631 53.2116 49.3359 53.0144C49.0118 52.9126 48.8316 52.5672 48.9335 52.243C49.0353 51.919 49.3805 51.7387 49.7048 51.8406C49.9504 51.9178 50.1775 52.0253 50.3845 52.1552V48.7397C50.3845 48.3999 50.66 48.1245 50.9997 48.1245C51.3395 48.1245 51.615 48.3999 51.615 48.7397V49.5256C52.0714 49.2384 52.624 49.0697 53.219 49.0697C53.5588 49.0697 53.8343 49.3452 53.8343 49.685C53.8343 50.0247 53.5588 50.3002 53.219 50.3002C52.3346 50.3002 51.615 50.9091 51.615 51.6576V55.6031C51.615 56.3516 52.3346 56.9606 53.219 56.9606C54.1036 56.9606 54.8231 56.3516 54.8231 55.6031C54.8231 55.0385 54.4017 54.5267 53.7745 54.3296C53.4503 54.2278 53.27 53.8824 53.3719 53.5582C53.4738 53.2341 53.8192 53.0539 54.1433 53.1557C54.8656 53.3826 55.4372 53.8594 55.7607 54.4583C56.1011 54.1489 56.3027 53.7353 56.3027 53.3016Z" fill="#0EF5FF"/>
</g>
<defs>
<filter id="filter0_d" x="0" y="0" width="102" height="102" filterUnits="userSpaceOnUse" color-interpolation-filters="sRGB">
<feFlood flood-opacity="0" result="BackgroundImageFix"/>
<feColorMatrix in="SourceAlpha" type="matrix" values="0 0 0 0 0 0 0 0 0 0 0 0 0 0 0 0 0 0 127 0"/>
<feOffset/>
<feGaussianBlur stdDeviation="15"/>
<feColorMatrix type="matrix" values="0 0 0 0 0.054902 0 0 0 0 0.960784 0 0 0 0 1 0 0 0 0.8 0"/>
<feBlend mode="normal" in2="BackgroundImageFix" result="effect1_dropShadow"/>
<feBlend mode="normal" in="SourceGraphic" in2="effect1_dropShadow" result="shape"/>
</filter>
</defs>
</svg>

<svg width="102" height="102" viewBox="0 0 102 102" fill="none" xmlns="http://www.w3.org/2000/svg"><g filter="url(#filter0_d)"><path fill-rule="evenodd" clip-rule="evenodd" d="M71.385 50.385h-9.906v-1.4h2.672a.615.615 0 000-1.23H61.48v-1.4h1.855a2.57 2.57 0 001.83-.758l4.047-4.047c.263.132.555.202.859.202.515 0 1-.201 1.365-.566.364-.364.565-.85.565-1.365s-.2-1-.565-1.365a1.917 1.917 0 00-1.365-.565c-.516 0-1 .2-1.365.565-.365.365-.566.85-.566 1.365 0 .303.07.596.202.86l-4.047 4.046a1.349 1.349 0 01-.96.397H61.48v-1.357a3.25 3.25 0 00-3.246-3.246h-1.357v-5.446a1.933 1.933 0 001.315-1.83c0-1.064-.866-1.93-1.93-1.93a1.932 1.932 0 00-.616 3.76v5.446h-1.4V37.85a.615.615 0 00-1.23 0v2.672h-1.4v-9.906a.615.615 0 00-1.23 0v9.906h-1.4V37.85a.615.615 0 00-1.23 0v2.672h-1.4v-1.855c0-.692-.27-1.341-.758-1.83l-4.048-4.048a1.933 1.933 0 00-.363-2.223 1.933 1.933 0 00-2.73 0 1.933 1.933 0 000 2.73 1.924 1.924 0 002.223.363l4.048 4.048c.256.256.397.597.397.96v1.855h-1.357a3.29 3.29 0 00-.811.102.615.615 0 10.306 1.192c.164-.042.334-.063.505-.063h14.466c1.111 0 2.015.904 2.015 2.015v14.466c0 .171-.021.34-.063.504a.615.615 0 101.192.306c.067-.263.102-.536.102-.81v-1.357h5.446c.258.763.98 1.315 1.83 1.315 1.064 0 1.93-.866 1.93-1.93a1.932 1.932 0 00-3.76-.616H61.48v-1.4h2.672a.615.615 0 000-1.23H61.48v-1.4h9.906a.615.615 0 000-1.23zm-1.81-11.059a.695.695 0 01.495-.205c.187 0 .362.073.495.205a.695.695 0 01.204.495.695.695 0 01-.205.495.695.695 0 01-.494.205.695.695 0 01-.495-.205.695.695 0 01-.205-.495c0-.187.072-.362.205-.495zm-29.259-6.9a.7.7 0 11-.99-.993.7.7 0 01.99.992zm15.945 1.52a.7.7 0 11.001-1.402.7.7 0 01-.001 1.401zM68.754 55.56a.7.7 0 11-.001 1.401.7.7 0 01.001-1.401zm-5.21 13.144c-.6-.6-1.501-.72-2.223-.363l-4.048-4.048a1.349 1.349 0 01-.397-.96V61.48h1.357c.275 0 .548-.035.811-.102a.615.615 0 10-.306-1.192 2.024 2.024 0 01-.505.063H43.767a2.017 2.017 0 01-2.015-2.015V43.767c0-.171.021-.34.063-.504a.615.615 0 10-1.191-.307 3.253 3.253 0 00-.103.81v1.358h-5.446a1.933 1.933 0 00-1.83-1.315c-1.064 0-1.93.866-1.93 1.93a1.932 1.932 0 003.76.616h5.446v1.4H37.85a.615.615 0 000 1.23h2.672v1.4h-9.906a.615.615 0 000 1.23h9.906v1.4H37.85a.615.615 0 000 1.23h2.672v1.4h-1.855a2.57 2.57 0 00-1.83.758L32.79 60.45a1.922 1.922 0 00-.859-.202c-.515 0-1 .201-1.365.566-.364.364-.565.85-.565 1.365s.2 1 .565 1.365c.365.364.85.565 1.365.565.516 0 1-.2 1.365-.565a1.931 1.931 0 00.365-2.225l4.046-4.046a1.35 1.35 0 01.96-.397h1.855v1.357a3.25 3.25 0 003.246 3.246h1.357v5.446a1.933 1.933 0 00-1.315 1.83c0 1.064.866 1.93 1.93 1.93a1.932 1.932 0 00.616-3.76V61.48h1.4v2.672a.615.615 0 001.23 0V61.48h1.4v9.906a.615.615 0 001.23 0V61.48h1.4v2.672a.615.615 0 001.23 0V61.48h1.4v1.855c0 .692.27 1.341.758 1.83l4.048 4.048a1.933 1.933 0 00.363 2.223c.376.376.87.564 1.365.564.494 0 .988-.188 1.365-.564a1.933 1.933 0 000-2.73zM33.246 46.439a.7.7 0 11.001-1.401.7.7 0 01-.002 1.401zm-.82 16.235a.695.695 0 01-.496.205.695.695 0 01-.494-.205.695.695 0 01-.206-.495c0-.187.073-.363.206-.495a.695.695 0 01.494-.205.696.696 0 01.7.7.695.695 0 01-.205.495zm14.013 6.08a.7.7 0 11-1.401-.001.7.7 0 011.401.001zm16.235 1.81a.7.7 0 11-.99-.991.7.7 0 01.99.992zm-7.42-24c1.317.362 2.28 1.476 2.28 2.792 0 .738-.315 1.441-.856 1.973.54.532.855 1.235.855 1.973 0 1.002-.572 1.93-1.485 2.46-.09 1.354-1.324 2.429-2.829 2.429-.898 0-1.7-.384-2.219-.98-.52.596-1.321.98-2.22.98-1.562 0-2.834-1.161-2.834-2.588v-.002c-.92-.605-1.48-1.582-1.48-2.628 0-.688.238-1.334.649-1.866a2.702 2.702 0 01-.648-1.75c0-1.317.962-2.431 2.28-2.793a2.1 2.1 0 01-.06-.496c0-1.245 1.105-2.259 2.464-2.259a2.56 2.56 0 011.85.768 2.559 2.559 0 011.849-.768c1.358 0 2.464 1.014 2.464 2.26 0 .168-.022.334-.06.495zm1.049 6.738c0-.582-.354-1.116-.947-1.43a.615.615 0 010-1.087c.593-.313.947-.847.947-1.429 0-.925-.878-1.679-1.959-1.686h-.007a.095.095 0 01-.02 0h-.007a2.22 2.22 0 00-.85.172.615.615 0 01-.479-1.133c.322-.136.66-.22 1.01-.254a.865.865 0 00.092-.387c0-.567-.553-1.029-1.234-1.029-.68 0-1.234.462-1.234 1.03a.615.615 0 01-1.23 0c0-.568-.554-1.03-1.235-1.03-.68 0-1.234.462-1.234 1.03a.92.92 0 00.225.59h.001a.62.62 0 01.03.04l.004.005a.108.108 0 01.004.005l.014.023a.615.615 0 01-.531.938h-.007c-1.082.007-1.959.76-1.96 1.686 0 .335.118.656.337.93a3.748 3.748 0 011.128-.46.615.615 0 01.276 1.2c-1.025.234-1.74 1.035-1.74 1.947 0 .505.227.989.615 1.356.106-.17.233-.33.38-.477a.615.615 0 11.867.873 1.24 1.24 0 00-.383.878c0 .749.72 1.358 1.605 1.358.884 0 1.604-.61 1.604-1.358v-1.315c0-.565-.422-1.076-1.05-1.274a.615.615 0 01.37-1.173c.245.077.473.184.68.314V48.74a.615.615 0 011.23 0v.786a3.008 3.008 0 011.604-.456.615.615 0 010 1.23c-.884 0-1.604.61-1.604 1.358v3.945c0 .749.72 1.358 1.604 1.358.885 0 1.604-.61 1.604-1.358 0-.565-.421-1.076-1.048-1.273a.615.615 0 11.368-1.174 2.762 2.762 0 011.618 1.302c.34-.31.542-.723.542-1.156z" fill="#0EF5FF"/></g><defs><filter id="filter0_d" x="0" y="0" width="102" height="102" filterUnits="userSpaceOnUse" color-interpolation-filters="sRGB"><feFlood flood-opacity="0" result="BackgroundImageFix"/><feColorMatrix in="SourceAlpha" values="0 0 0 0 0 0 0 0 0 0 0 0 0 0 0 0 0 0 127 0"/><feOffset/><feGaussianBlur stdDeviation="15"/><feColorMatrix values="0 0 0 0 0.054902 0 0 0 0 0.960784 0 0 0 0 1 0 0 0 0.8 0"/><feBlend in2="BackgroundImageFix" result="effect1_dropShadow"/><feBlend in="SourceGraphic" in2="effect1_dropShadow" result="shape"/></filter></defs></svg>
